X:2
T:Naer jag dansar med min lilla brud (Hambo)
R:hambo
S:efter Olov Johansson
Z:Elizabeth Weis, 96060
M:3/4
L:1/8
K:G
|: (D>G) (B>d) c>A | (A<G) G4 | (GB) (d<g) e>c |1 (e<d) (de/d/) B>G :|2
 (e<d) d(e/d/ B)>d
|: g2 (g>e) ce | (e<d) (d/e/)d/B/ G>B | (d<c) (A/c/)A/F/ D<F | (A<G) G2
B>d |
   g2 (g>e) ce | (e<d) (d/e/)d/B/ G>B | (d<c) (A/c/)A/F/ D<F | (A<G) G4
:|
%  ABC2Win Version 2.1 11/11/98
% Output from ABC2Win  Version 2.1 h on 11/11/98
